src/assets/healthPage/RootCanal/3.svg

<svg height="40" viewBox="0 0 40 40" width="40" xmlns="http://www.w3.org/2000/svg"><g fill="none" opacity=".5"><path d="m19.7 27.2c1.5 0 2.7-.4 3.6-1.1 1-.8 1.4-1.9 1.4-3.3 0-.8-.2-1.5-.6-2.1-.3-.6-1-1.1-1.8-1.4.7-.3 1.3-.8 1.6-1.3.4-.6.6-1.2.6-1.9 0-1.4-.4-2.4-1.3-3.2-.8-.7-2-1-3.5-1-1.4 0-2.5.3-3.4 1.1s-1.3 1.8-1.3 3h2.4c0-.7.3-1.2.7-1.6s1-.5 1.6-.5c.8 0 1.4.1 1.7.5.4.4.6 1 .6 1.7 0 .8-.2 1.3-.5 1.7-.4.4-.9.6-1.8.6h-1.7v2h1.7c.9 0 1.5.2 1.9.6.4.3.6 1 .6 1.8s-.2 1.4-.6 1.8c-.5.4-1.1.6-1.9.6-.7 0-1.3-.2-1.7-.6-.5-.4-.7-.9-.7-1.6h-2.5c0 1.4.5 2.4 1.4 3.1.9.8 2.1 1.1 3.5 1.1z" fill="#fff"/><circle cx="20" cy="20" r="19" stroke="#fff" stroke-width="2"/></g></svg>

<svg xmlns="http://www.w3.org/2000/svg" width="40" height="40" viewBox="0 0 40 40"><title>    n3@2x</title><g style="fill:none;opacity:0.5"><path d="M19.7 27.2C21.2 27.2 22.4 26.8 23.3 26.1 24.3 25.3 24.7 24.2 24.7 22.8 24.7 22 24.5 21.3 24.1 20.7 23.8 20.1 23.1 19.6 22.3 19.3 23 19 23.6 18.5 23.9 18 24.3 17.4 24.5 16.8 24.5 16.1 24.5 14.7 24.1 13.7 23.2 12.9 22.4 12.2 21.2 11.9 19.7 11.9 18.3 11.9 17.2 12.2 16.3 13 15.4 13.8 15 14.8 15 16L15 16 17.4 16C17.4 15.3 17.7 14.8 18.1 14.4 18.5 14 19.1 13.9 19.7 13.9 20.5 13.9 21.1 14 21.4 14.4 21.8 14.8 22 15.4 22 16.1 22 16.9 21.8 17.4 21.5 17.8 21.1 18.2 20.6 18.4 19.7 18.4L19.7 18.4 18 18.4 18 20.4 19.7 20.4C20.6 20.4 21.2 20.6 21.6 21 22 21.3 22.2 22 22.2 22.8 22.2 23.6 22 24.2 21.6 24.6 21.1 25 20.5 25.2 19.7 25.2 19 25.2 18.4 25 18 24.6 17.5 24.2 17.3 23.7 17.3 23L17.3 23 14.8 23C14.8 24.4 15.3 25.4 16.2 26.1 17.1 26.9 18.3 27.2 19.7 27.2Z" fill="#FFF"/><circle cx="20" cy="20" r="19" style="stroke-width:2;stroke:#FFF"/></g></svg>
